X:1
T: Bröllopspolonäs till Theo och Jasmin
C: Emil Åhman
R: Polonäs
M:3/4
L:1/16
K:A
|:A2A2 cdef e2ec | A2GA B2BG E4 | B2Bc d2de f2fe | c2cd efec e4 | A2A2 cdef e2ec |
A2GA B2BG E4 | B2Bc d2cd edcB | EGBG A8 :: cecA cecA cecA |
BdBG BdBG BdBG | cecA cecA cecA |1 GABc BAGF E4 :|2 GABc BAGB A4 |] B2Bc d2cd edcB |
AGEG B4 A4|

